X: 8509
T: Creel Of Turf, The
R: jig
M: 6/8
K: Eminor
D|EBB BAG|FDF AFD|EBB Bcd|AGF E2D|
EBB BAG|FDF ABc|ded BdB|AGF E2:|
A|Bee ede|fef dBA|Bee ede|fec d2A|
Bee ede|fef dBA|B2B Bcd|AGF E2:|

